X: 2059
Q: "Strathspey."
M: C
L: 1/16
K: Am
ue2 |\
vAA3ve3ud ve3uAce3 | GG3 B3A G4(GB3) |\
ue2 |:\
vc3vBuA3u^g ae3=g3uB |
[1 vc3vB uA2(v^f^g a3)veu=g3uB | {g}a3e=g3B {cB}A4 (A3e) :|\
[2 A3Bc3e d3eg3a | ge3 gB3 {cB}A4 A2 |]


